svg/gif.svg

<?xml version="1.0" encoding="UTF-8"?>
<svg xmlns="http://www.w3.org/2000/svg" xmlns:xlink="http://www.w3.org/1999/xlink" width="32" height="32" viewBox="0 0 32 32">
<rect x="-3.2" y="-3.2" width="38.4" height="38.4" fill="rgb(100%, 100%, 100%)" fill-opacity="1"/>
<path fill-rule="nonzero" fill="rgb(0%, 0%, 0%)" fill-opacity="1" d="M 32 32 L 0 32 L 0 0 L 32 0 Z M 3.105469 28.800781 L 28.929688 28.800781 L 28.929688 3.199219 L 3.105469 3.199219 M 10.367188 8.640625 C 9.511719 8.636719 8.710938 9.066406 8.238281 9.777344 C 7.761719 10.488281 7.675781 11.390625 8.007812 12.179688 C 8.402344 13.136719 9.335938 13.757812 10.371094 13.761719 C 11.785156 13.761719 12.929688 12.613281 12.929688 11.199219 C 12.929688 9.785156 11.78125 8.640625 10.367188 8.640625 M 25.25 15.136719 L 22.144531 12.0625 L 16 18.242188 L 12.929688 15.136719 L 6.753906 21.3125 L 6.753906 23.359375 L 25.246094 23.359375 Z M 25.25 15.136719 "/>
</svg>

<svg role="img" viewBox="0 0 32 32" height="32" width="32" xmlns="http://www.w3.org/2000/svg"><path d="M-3.2-3.2h38.4v38.4H-3.2z" fill="rgb(100%, 100%, 100%)"/><path d="M32 32H0V0h32ZM3.105 28.8H28.93V3.2H3.105m7.262 5.44a2.554 2.554 0 0 0-2.36 3.54 2.567 2.567 0 0 0 2.364 1.582 2.56 2.56 0 0 0-.004-5.121m14.883 6.496-3.105-3.075L16 18.243l-3.07-3.105-6.176 6.176v2.046h18.492Zm0 0"/></svg>
